assets/illustrations/multisize/40/ppsx.svg

<?xml version="1.0" encoding="utf-8"?>
<!-- Generator: Adobe Illustrator 21.1.0, SVG Export Plug-In . SVG Version: 6.00 Build 0)  -->
<svg version="1.1" xmlns="http://www.w3.org/2000/svg" xmlns:xlink="http://www.w3.org/1999/xlink" x="0px" y="0px"
	 viewBox="0 0 40 40" enable-background="new 0 0 40 40" xml:space="preserve">
<g id="TEMPLATE" display="none">
	<g display="inline">
		<path fill="#D0D0D0" d="M40,0v40H0V0H40 M41-1h-1H0h-1v1v40v1h1h40h1v-1V0V-1L41-1z"/>
	</g>
	<g display="inline" opacity="0.1">
		<path fill="#FF3A6D" d="M38,2v36H2V2H38 M40,0H0v40h40V0L40,0z"/>
	</g>
</g>
<g id="ICONS">
	<polygon fill="#FFFFFF" points="29,2 9,2 9,6 4,6 3,6 3,7 4,7 4,22 10,22 10,25 9,25 9,26 10,26 10,28 6,32 6,34 9,31 9,38 11,38 
		11,37 14,37 14,38 37,38 37,10 	"/>
	<g>
		<g>
			<rect x="4.5" y="6.5" fill="#FFFFFF" width="20" height="15"/>
		</g>
		<g>
			<path fill="#808080" d="M24,7v14H5V7H24 M25,6H4v16h21V6L25,6z"/>
		</g>
	</g>
	<rect x="3" y="6" fill="#808080" width="23" height="1"/>
	<rect x="9" y="25" fill="#808080" width="11" height="1"/>
	<rect x="14" y="22" fill="#808080" width="1" height="3"/>
	<rect x="7" y="10" fill="#C8C8C8" width="2" height="8"/>
	<rect x="11" y="12" fill="#F5BA9D" width="2" height="6"/>
	<rect x="15" y="14" fill="#C8C8C8" width="2" height="4"/>
	<rect x="19" y="16" fill="#F5BA9D" width="2" height="2"/>
	<path fill="#949494" d="M37,10l-8-8H9v4h1V3h18v8h8v26H14v1h23V10z M29,10V3.5l6.5,6.5H29z"/>
	<polygon fill="#D04727" points="14,32 10,28 6,32 6,34 9,31 9,38 11,38 11,31 14,34 	"/>
	<linearGradient id="SVGID_1_" gradientUnits="userSpaceOnUse" x1="32" y1="13.9063" x2="32" y2="11.0875">
		<stop  offset="0" style="stop-color:#828282;stop-opacity:0"/>
		<stop  offset="0.2812" style="stop-color:#7F7F7F;stop-opacity:0.0281"/>
		<stop  offset="0.4503" style="stop-color:#777777;stop-opacity:0.045"/>
		<stop  offset="0.5899" style="stop-color:#696969;stop-opacity:0.059"/>
		<stop  offset="0.7133" style="stop-color:#545454;stop-opacity:0.0713"/>
		<stop  offset="0.8259" style="stop-color:#3A3A3A;stop-opacity:0.0826"/>
		<stop  offset="0.9294" style="stop-color:#1A1A1A;stop-opacity:0.0929"/>
		<stop  offset="1" style="stop-color:#000000;stop-opacity:0.1"/>
	</linearGradient>
	<rect x="28" y="11" fill="url(#SVGID_1_)" width="8" height="3"/>
	<linearGradient id="SVGID_2_" gradientUnits="userSpaceOnUse" x1="26.7917" y1="9.7083" x2="31.7299" y2="4.7701">
		<stop  offset="0" style="stop-color:#FFFFFF;stop-opacity:0"/>
		<stop  offset="0.8537" style="stop-color:#FFFFFF;stop-opacity:0.2134"/>
		<stop  offset="1" style="stop-color:#FFFFFF;stop-opacity:0.25"/>
	</linearGradient>
	<polygon fill="url(#SVGID_2_)" points="29,2 9,2 9,3 28,3 28,11 35.9999,10.9999 36,25 37,25 37,10 	"/>
	<linearGradient id="SVGID_3_" gradientUnits="userSpaceOnUse" x1="6.6866" y1="3.1197" x2="35.0986" y2="39.4855">
		<stop  offset="0" style="stop-color:#FFFFFF;stop-opacity:0"/>
		<stop  offset="0.2264" style="stop-color:#FCFCFC;stop-opacity:0.0226"/>
		<stop  offset="0.3626" style="stop-color:#F4F4F4;stop-opacity:0.0363"/>
		<stop  offset="0.475" style="stop-color:#E6E6E6;stop-opacity:0.0475"/>
		<stop  offset="0.5744" style="stop-color:#D1D1D1;stop-opacity:0.0574"/>
		<stop  offset="0.6652" style="stop-color:#B7B7B7;stop-opacity:0.0665"/>
		<stop  offset="0.7498" style="stop-color:#979797;stop-opacity:0.075"/>
		<stop  offset="0.8297" style="stop-color:#707070;stop-opacity:0.083"/>
		<stop  offset="0.9057" style="stop-color:#444444;stop-opacity:0.0906"/>
		<stop  offset="0.9761" style="stop-color:#121212;stop-opacity:0.0976"/>
		<stop  offset="1" style="stop-color:#000000;stop-opacity:0.1"/>
	</linearGradient>
	<polygon fill="url(#SVGID_3_)" points="29,2 9,2 9,6 4,6 3,6 3,7 4,7 4,22 10,22 10,24 9,24 9,25 10,25 10,28 6,32 6,34 9,31 9,38 
		11,38 11,37 14,37 14,38 37,38 37,10 	"/>
</g>
</svg>

<svg id="1b832e79-0904-46c3-a66f-622f1c313d69" data-name="ICONS" xmlns="http://www.w3.org/2000/svg" xmlns:xlink="http://www.w3.org/1999/xlink" viewBox="0 0 40 40"><defs><linearGradient id="e32b4a51-b364-4792-9ced-8c504f9fb5f5" x1="32" y1="13.90625" x2="32" y2="11.08751" gradientUnits="userSpaceOnUse"><stop offset="0" stop-color="#828282" stop-opacity="0"/><stop offset="0.86247" stop-color="#303030" stop-opacity="0.06315"/><stop offset="1" stop-opacity="0.1"/></linearGradient><linearGradient id="82cf9836-bca5-4cb3-ab50-9f05b1545721" x1="26.79167" y1="9.70833" x2="31.72991" y2="4.77009" gradientUnits="userSpaceOnUse"><stop offset="0" stop-color="#fff" stop-opacity="0"/><stop offset="0.44604" stop-color="#fff" stop-opacity="0.00799"/><stop offset="0.63551" stop-color="#fff" stop-opacity="0.03616"/><stop offset="0.77636" stop-color="#fff" stop-opacity="0.08493"/><stop offset="0.8924" stop-color="#fff" stop-opacity="0.15385"/><stop offset="0.99328" stop-color="#fff" stop-opacity="0.24291"/><stop offset="1" stop-color="#fff" stop-opacity="0.25"/></linearGradient><linearGradient id="49207dea-5712-4509-9819-eb052b47149a" x1="6.68656" y1="3.11975" x2="35.09862" y2="39.48552" gradientUnits="userSpaceOnUse"><stop offset="0" stop-color="#fff" stop-opacity="0"/><stop offset="0.86247" stop-color="#5e5e5e" stop-opacity="0.06315"/><stop offset="1" stop-opacity="0.1"/></linearGradient></defs><title>FileTypeIcons_Master_All_NEW</title><polygon points="29 2 9 2 9 6 4 6 3 6 3 7 4 7 4 22 10 22 10 25 9 25 9 26 10 26 10 28 6 32 6 34 9 31 9 38 11 38 11 37 14 37 14 38 37 38 37 10 29 2" fill="#fff"/><rect x="4.5" y="6.5" width="20" height="15" fill="#fff"/><path d="M24,7V21H5V7H24m1-1H4V22H25V6Z" fill="gray"/><rect x="3" y="6" width="23" height="1" fill="gray"/><rect x="9" y="25" width="11" height="1" fill="gray"/><rect x="14" y="22" width="1" height="3" fill="gray"/><rect x="7" y="10" width="2" height="8" fill="#c8c8c8"/><rect x="11" y="12" width="2" height="6" fill="#f5ba9d"/><rect x="15" y="14" width="2" height="4" fill="#c8c8c8"/><rect x="19" y="16" width="2" height="2" fill="#f5ba9d"/><path d="M37,10,29,2H9V6h1V3H28v8h8V37H14v1H37Zm-8,0V3.5L35.5,10Z" fill="#949494"/><polygon points="14 32 10 28 6 32 6 34 9 31 9 38 11 38 11 31 14 34 14 32" fill="#d04727"/><rect x="28" y="11" width="8" height="3" fill="url(#e32b4a51-b364-4792-9ced-8c504f9fb5f5)"/><polygon points="29 2 9 2 9 3 28 3 28 11 36 11 36 25 37 25 37 10 29 2" fill="url(#82cf9836-bca5-4cb3-ab50-9f05b1545721)"/><polygon points="29 2 9 2 9 6 4 6 3 6 3 7 4 7 4 22 10 22 10 24 9 24 9 25 10 25 10 28 6 32 6 34 9 31 9 38 11 38 11 37 14 37 14 38 37 38 37 10 29 2" fill="url(#49207dea-5712-4509-9819-eb052b47149a)"/></svg>
